X:211
T:Mittel's Untitled Hornpipe
R:hp 32 march
C:Trad. ed. Barry Callaghan
S:'Hard Core English' page 22A
O:England
A:Kent
B:Hard Core English ISBN 978 085418 201 5
Z:PJHeadford 2008
M:4/4
L:1/8
Q:1/4=140
K:D
|:D4 FDGE|A4 BABc|d2ef agfe|gfed dcBA|
D4 FDGE|A4 BABc|d2ef agfe|dfec d4:|
|:fdfa gfed|dced dcBA|fdfa gfed|bagf f2e2|
fdfa gfed|dced dcBA|D2FA dfaf|gedc d4:|]
W:Untitled in Mittel MS.

